svg/editor/numbers_09_sort_descending_fill.svg

<?xml version="1.0" encoding="UTF-8"?>
<svg width="24px" height="24px" viewBox="0 0 24 24" version="1.1" xmlns="http://www.w3.org/2000/svg" xmlns:xlink="http://www.w3.org/1999/xlink">
    <title>numbers_09_sort_descending_up_fill</title>
    <g id="Icon" stroke="none" stroke-width="1" fill="none" fill-rule="evenodd">
        <g id="Editor" transform="translate(-192.000000, -336.000000)">
            <g id="numbers_09_sort_descending_up_fill" transform="translate(192.000000, 336.000000)">
                <path d="M24,0 L24,24 L0,24 L0,0 L24,0 Z M12.5935,23.2578 L12.5819,23.2595 L12.5109,23.295 L12.4919,23.2987 L12.4767,23.295 L12.4057,23.2595 C12.3958,23.2564 12.387,23.259 12.3821,23.2649 L12.378,23.2758 L12.3609,23.7031 L12.3659,23.7235 L12.3769,23.7357 L12.4805,23.8097 L12.4953,23.8136 L12.5071,23.8097 L12.6107,23.7357 L12.6233,23.7197 L12.6267,23.7031 L12.6096,23.2758 C12.6076,23.2657 12.601,23.2593 12.5935,23.2578 Z M12.8584,23.1453 L12.8445,23.1473 L12.6598,23.2397 L12.6499,23.2499 L12.6472,23.2611 L12.6651,23.6906 L12.6699,23.7034 L12.6784,23.7105 L12.8793,23.8032 C12.8914,23.8069 12.9022,23.803 12.9078,23.7952 L12.9118,23.7812 L12.8777,23.1665 C12.8753,23.1546 12.8674,23.147 12.8584,23.1453 Z M12.143,23.1473 C12.1332,23.1424 12.1222,23.1453 12.1156,23.1526 L12.1099,23.1665 L12.0758,23.7812 C12.0751,23.7927 12.0828,23.8019 12.0926,23.8046 L12.1083,23.8032 L12.3092,23.7105 L12.3186,23.7024 L12.3225,23.6906 L12.3404,23.2611 L12.3372,23.2485 L12.3278,23.2397 L12.143,23.1473 Z" id="MingCute" fill-rule="nonzero"></path>
                <path d="M4.5,5.5 C4.5,3.567 6.067,2 8,2 C9.933,2 11.5,3.567 11.5,5.5 L11.5,7.5 C11.5,9.433 9.933,11 8,11 C6.067,11 4.5,9.433 4.5,7.5 L4.5,5.5 Z M8,5 C7.72386,5 7.5,5.22386 7.5,5.5 L7.5,7.5 C7.5,7.77614 7.72386,8 8,8 C8.27614,8 8.5,7.77614 8.5,7.5 L8.5,5.5 C8.5,5.22386 8.27614,5 8,5 Z M18.0607,3.93934 C17.4749,3.35355 16.5252,3.35355 15.9394,3.93934 L13.111,6.76777 C12.5252,7.35355 12.5252,8.3033 13.111,8.88909 C13.6968,9.47487 14.6465,9.47487 15.2323,8.88909 L15.5001,8.62132 L15.5001,19.9999975 C15.5001,20.8284 16.1716,21.4999975 17.0001,21.4999975 C17.8285,21.4999975 18.5001,20.8284 18.5001,19.9999975 L18.5001,8.62132 L18.7678,8.88909 C19.3536,9.47487 20.3034,9.47487 20.8891,8.88909 C21.4749,8.3033 21.4749,7.35355 20.8891,6.76777 L18.0607,3.93934 Z M4.5,15.5 C4.5,13.567 6.067,12 8,12 C9.86856667,12 11.3951267,13.4642744 11.4948211,15.3079645 L11.5,15.51 C11.5,17.4322 10.7012,18.982 9.96942,20.0035 C9.70484857,20.3728571 9.44064449,20.6851735 9.20916198,20.9352012 L8.94916,21.205 L8.94916,21.205 C8.78469,21.3688 8.61585,21.5288 8.43418,21.6736 C7.78602,22.1895 6.84234,22.0823 6.32641,21.4342 C5.844235,20.8284812 5.90630512,19.9646277 6.44555706,19.4330173 L6.66782377,19.2362371 L6.66782377,19.2362371 L6.79161295,19.1191098 L6.79161295,19.1191098 L6.94867166,18.9599918 C6.97707531,18.9301531 7.00645625,18.8987 7.03661,18.8657 C5.57209,18.4473 4.5,17.0989 4.5,15.5 Z M8,15 C7.72386,15 7.5,15.2239 7.5,15.5 C7.5,15.7761 7.72386,16 8,16 C8.27614,16 8.5,15.7761 8.5,15.5 C8.5,15.2239 8.27614,15 8,15 Z" id="形状" fill="#09244B"></path>
            </g>
        </g>
    </g>
</svg>

<svg xmlns="http://www.w3.org/2000/svg" width="24" height="24"><g fill="none" fill-rule="evenodd"><path d="M24 0v24H0V0h24ZM12.594 23.258l-.012.002-.071.035-.02.004-.014-.004-.071-.036c-.01-.003-.019 0-.024.006l-.004.01-.017.428.005.02.01.013.104.074.015.004.012-.004.104-.074.012-.016.004-.017-.017-.427c-.002-.01-.009-.017-.016-.018Zm.264-.113-.014.002-.184.093-.01.01-.003.011.018.43.005.012.008.008.201.092c.012.004.023 0 .029-.008l.004-.014-.034-.614c-.003-.012-.01-.02-.02-.022Zm-.715.002a.023.023 0 0 0-.027.006l-.006.014-.034.614c0 .012.007.02.017.024l.015-.002.201-.093.01-.008.003-.011.018-.43-.003-.012-.01-.01-.184-.092Z"/><path fill="#09244B" d="M4.5 5.5a3.5 3.5 0 1 1 7 0v2a3.5 3.5 0 1 1-7 0v-2ZM8 5a.5.5 0 0 0-.5.5v2a.5.5 0 0 0 1 0v-2A.5.5 0 0 0 8 5Zm10.06-1.06a1.5 1.5 0 0 0-2.12 0L13.11 6.767a1.5 1.5 0 1 0 2.121 2.121l.268-.268V20a1.5 1.5 0 1 0 3 0V8.621l.268.268a1.5 1.5 0 1 0 2.121-2.121l-2.828-2.829ZM4.5 15.5a3.5 3.5 0 0 1 6.995-.192l.005.202c0 1.922-.799 3.472-1.53 4.493a9.64 9.64 0 0 1-.76.932l-.26.27a6.31 6.31 0 0 1-.516.469 1.5 1.5 0 0 1-1.988-2.241l.222-.197.124-.117.157-.159.088-.094A3.501 3.501 0 0 1 4.5 15.5ZM8 15a.5.5 0 1 0 0 1 .5.5 0 0 0 0-1Z"/></g></svg>
